X: 34385
T: Ribbons Of The Redheaded Girl, The
R: reel
M: 4/4
K: Gdorian
G>F|:D>GG>F G2B>F|G>Bc>d f2d>f|g>fd>c B>AB2|F>GA2 F2E2|
D>GG2 G2B>F|G>Bc>d f2d>f|g>fd>c B>AF>A|1 F<GG2 G2G>F:|2 F<GG2 G4||
|:d2d>e f2d>f|g>fd>e f2d>f|g>fd>c B>AB2|F>GA2 F2E2|
D>GG2 G2B>F|G>Bc>d f2d>f|g>fd>c B>AF>A|F<GG2 G4:|

